icons/speech-bubble-help.svg

<svg xmlns="http://www.w3.org/2000/svg" width="24" height="24" viewBox="0 0 24 24">
  <path d="M15,3 C19.5522847,3 23,6.44771525 23,11 C23,15.5522847 19.5522847,19 15,19 L15,19 L14.492,19 L14.4215793,19.0906275 C13.7103901,19.9663638 12.948642,20.6393906 11.8907103,21.256749 L11.8907103,21.256749 L11.5946555,21.4238497 L11.2369286,21.6140163 L10.9086251,21.7821926 C9.57755795,22.4597178 8,21.4937799 8,20 L8,20 L8,19 C4.27285013,19 1,15.3634999 1,11 C1,6.5377729 4.49099359,3 9,3 L9,3 Z M12.0001686,13 C11.4478886,13 11.0001686,13.4477 11.0001686,14 C11.0001686,14.5523 11.4478886,15 12.0001686,15 C12.5524586,15 13.0001686,14.5523 13.0001686,14 C13.0001686,13.4477 12.5524586,13 12.0001686,13 Z M12.0001686,7 C11.3689286,7 10.8456386,7.15996 10.4278886,7.43846 C10.0148386,7.71383 9.74882858,8.07562 9.57934858,8.41459 C9.39409858,8.78507 9.54426858,9.23558 9.91475858,9.42082 C10.2852386,9.60606 10.7357486,9.45589 10.9209886,9.08541 C11.0014986,8.92438 11.1104886,8.78617 11.2599386,8.68654 C11.4046986,8.59004 11.6314086,8.5 12.0001686,8.5 C12.2799186,8.5 12.5530786,8.58656 12.7376686,8.725 C12.9022286,8.84842 13.0001686,9.01009 13.0001686,9.25 C13.0001686,9.42662 12.9593586,9.51381 12.9229986,9.56835 C12.8776486,9.63639 12.7994086,9.71162 12.6466286,9.81349 C12.5702386,9.86441 12.4880486,9.9139 12.3877086,9.97411 L12.3815586,9.9778 C12.2878586,10.03402 12.1772086,10.10041 12.0684786,10.1729 C11.8462486,10.32107 11.5807386,10.52712 11.3760986,10.83412 C11.1463586,11.17878 11.2395186,11.64442 11.5841786,11.87417 C11.9288386,12.10391 12.3944886,12.01075 12.6242286,11.66609 C12.6695886,11.59803 12.7478286,11.52279 12.9005986,11.42093 C12.9769786,11.37001 13.0591686,11.32052 13.1594986,11.26032 L13.1657686,11.25656 C13.2594286,11.20036 13.3700286,11.134 13.4787086,11.06154 C13.7009186,10.91339 13.9664386,10.70737 14.1710686,10.4004 C14.3847686,10.07994 14.5001686,9.69838 14.5001686,9.25 C14.5001686,8.48991 14.1397686,7.90158 13.6376686,7.525 C13.1555886,7.16344 12.5537486,7 12.0001686,7 Z"/>
</svg>

<svg xmlns="http://www.w3.org/2000/svg" viewBox="0 0 24 24">
  <path d="M15 3c4.55 0 8 3.45 8 8s-3.45 8-8 8h-.5l-.08.1a8.85 8.85 0 0 1-2.53 2.16l-.3.16-.35.2-.33.16A2 2 0 0 1 8 20v-1c-3.73 0-7-3.64-7-8 0-4.46 3.5-8 8-8zm-3 10a1 1 0 1 0 0 2 1 1 0 0 0 0-2zm0-6c-.63 0-1.15.16-1.57.44a2.5 2.5 0 0 0-.85.97.75.75 0 1 0 1.34.68 1 1 0 0 1 .34-.4c.14-.1.37-.19.74-.19.28 0 .55.09.74.22.16.13.26.29.26.53 0 .18-.04.26-.08.32a.96.96 0 0 1-.27.24l-.26.16-.32.2c-.22.15-.49.36-.7.66a.75.75 0 0 0 1.25.84.96.96 0 0 1 .28-.25l.26-.16.32-.2a2.03 2.03 0 0 0 1.02-1.81 2.1 2.1 0 0 0-.86-1.72A2.76 2.76 0 0 0 12 7z"/>
</svg>
